img/instagram.svg

<?xml version="1.0" encoding="UTF-8"?>
<svg id="Capa_1" data-name="Capa 1" xmlns="http://www.w3.org/2000/svg" version="1.1" viewBox="0 0 64 64">
  <defs>
    <style>
      .cls-1 {
        fill: #fff;
        stroke-width: 0px;
      }
    </style>
  </defs>
  <path class="cls-1" d="M48.2,0H15.8C7.1,0,0,7.1,0,15.8v32.4c0,8.7,7.1,15.8,15.8,15.8h32.4c8.7,0,15.8-7.1,15.8-15.8V15.8c0-8.7-7.1-15.8-15.8-15.8ZM57.9,48.2c0,5.4-4.4,9.7-9.7,9.7H15.8c-5.4,0-9.7-4.4-9.7-9.7V15.8c0-5.4,4.4-9.7,9.7-9.7h32.4c5.4,0,9.7,4.4,9.7,9.7v32.4Z"/>
  <path class="cls-1" d="M32,16.8c-8.4,0-15.2,6.8-15.2,15.2s6.8,15.2,15.2,15.2,15.2-6.8,15.2-15.2-6.8-15.2-15.2-15.2ZM32,41.2c-5.1,0-9.2-4.1-9.2-9.2s4.1-9.2,9.2-9.2,9.2,4.1,9.2,9.2-4.1,9.2-9.2,9.2Z"/>
  <path class="cls-1" d="M47.9,12.1c-2.2,0-4.1,1.8-4.1,4.1s1.8,4.1,4.1,4.1,4.1-1.8,4.1-4.1h0c0-2.3-1.9-4.1-4.1-4.1Z"/>
</svg>

<?xml version="1.0" encoding="utf-8"?>
<!-- Generator: Adobe Illustrator 28.3.0, SVG Export Plug-In . SVG Version: 6.00 Build 0)  -->
<svg version="1.1" id="Capa_1" xmlns="http://www.w3.org/2000/svg" xmlns:xlink="http://www.w3.org/1999/xlink" x="0px" y="0px"
	 viewBox="0 0 64 64" style="enable-background:new 0 0 64 64;" xml:space="preserve">
<style type="text/css">
	.st0{fill:#DC2627;}
</style>
<path class="st0" d="M48.2,0H15.8C7.1,0,0,7.1,0,15.8v32.4C0,56.9,7.1,64,15.8,64h32.4C56.9,64,64,56.9,64,48.2V15.8
	C64,7.1,56.9,0,48.2,0z M57.9,48.2c0,5.4-4.4,9.7-9.7,9.7H15.8c-5.4,0-9.7-4.4-9.7-9.7V15.8c0-5.4,4.4-9.7,9.7-9.7h32.4
	c5.4,0,9.7,4.4,9.7,9.7V48.2z"/>
<path class="st0" d="M32,16.8c-8.4,0-15.2,6.8-15.2,15.2S23.6,47.2,32,47.2S47.2,40.4,47.2,32S40.4,16.8,32,16.8z M32,41.2
	c-5.1,0-9.2-4.1-9.2-9.2s4.1-9.2,9.2-9.2s9.2,4.1,9.2,9.2S37.1,41.2,32,41.2z"/>
<path class="st0" d="M47.9,12.1c-2.2,0-4.1,1.8-4.1,4.1c0,2.2,1.8,4.1,4.1,4.1c2.2,0,4.1-1.8,4.1-4.1l0,0
	C51.9,13.9,50.1,12.1,47.9,12.1z"/>
</svg>
